devices/48/pda.svg

<?xml version="1.0" encoding="UTF-8" standalone="no"?>
<!-- Created with Inkscape (http://www.inkscape.org/) -->

<svg
   xmlns:svg="http://www.w3.org/2000/svg"
   xmlns="http://www.w3.org/2000/svg"
   xmlns:xlink="http://www.w3.org/1999/xlink"
   version="1.1"
   width="48"
   height="48"
   id="svg5490">
  <defs
     id="defs5492">
    <linearGradient
       id="linearGradient4760">
      <stop
         id="stop4762"
         style="stop-color:#b3b3b3;stop-opacity:1"
         offset="0" />
      <stop
         id="stop4764"
         style="stop-color:white;stop-opacity:1"
         offset="0.35480854" />
      <stop
         id="stop4766"
         style="stop-color:#f0f0f0;stop-opacity:1"
         offset="0.51390922" />
      <stop
         id="stop4768"
         style="stop-color:#999;stop-opacity:1"
         offset="1" />
    </linearGradient>
    <linearGradient
       id="linearGradient3921">
      <stop
         id="stop3923"
         style="stop-color:black;stop-opacity:1"
         offset="0" />
      <stop
         id="stop3925"
         style="stop-color:black;stop-opacity:0"
         offset="1" />
    </linearGradient>
    <linearGradient
       x1="22.487293"
       y1="2.0235677"
       x2="22.487293"
       y2="42.99675"
       id="linearGradient7693"
       xlink:href="#linearGradient3143"
       gradientUnits="userSpaceOnUse"
       gradientTransform="matrix(1.03421,0,0,1.0494669,0.74341675,-0.12366726)" />
    <linearGradient
       id="linearGradient3821">
      <stop
         id="stop3823"
         style="stop-color:#6c6c6c;stop-opacity:1"
         offset="0" />
      <stop
         id="stop3825"
         style="stop-color:#a8a8a8;stop-opacity:1"
         offset="1" />
    </linearGradient>
    <linearGradient
       id="linearGradient3143">
      <stop
         id="stop3145"
         style="stop-color:#e6e6e6;stop-opacity:1"
         offset="0" />
      <stop
         id="stop3147"
         style="stop-color:#afafaf;stop-opacity:1"
         offset="1" />
    </linearGradient>
    <linearGradient
       id="linearGradient3737">
      <stop
         id="stop3739"
         style="stop-color:#121214;stop-opacity:1"
         offset="0" />
      <stop
         id="stop3741"
         style="stop-color:#393e44;stop-opacity:1"
         offset="0.0932906" />
      <stop
         id="stop3743"
         style="stop-color:#50555b;stop-opacity:1"
         offset="0.50235617" />
      <stop
         id="stop3745"
         style="stop-color:#22272d;stop-opacity:1"
         offset="0.91142172" />
      <stop
         id="stop3747"
         style="stop-color:#303438;stop-opacity:1"
         offset="1" />
    </linearGradient>
    <linearGradient
       id="linearGradient9936">
      <stop
         id="stop9938"
         style="stop-color:#575757;stop-opacity:1"
         offset="0" />
      <stop
         id="stop9940"
         style="stop-color:#333;stop-opacity:1"
         offset="1" />
    </linearGradient>
    <linearGradient
       id="linearGradient6592-2-7">
      <stop
         id="stop6594-0-2"
         style="stop-color:white;stop-opacity:0.27450982"
         offset="0" />
      <stop
         id="stop6596-2-5"
         style="stop-color:white;stop-opacity:0"
         offset="1" />
    </linearGradient>
    <linearGradient
       x1="22"
       y1="45"
       x2="22"
       y2="2"
       id="linearGradient3881"
       xlink:href="#linearGradient3821"
       gradientUnits="userSpaceOnUse" />
    <linearGradient
       x1="12.9375"
       y1="8.4375"
       x2="15.25"
       y2="19.8125"
       id="linearGradient3884"
       xlink:href="#linearGradient6592-2-7"
       gradientUnits="userSpaceOnUse"
       gradientTransform="matrix(0.5714286,0,0,0.99999942,10.285715,3.0000016)" />
    <radialGradient
       cx="19.063108"
       cy="8.4179487"
       r="11"
       fx="19.063108"
       fy="8.4179487"
       id="radialGradient3888"
       xlink:href="#linearGradient9936"
       gradientUnits="userSpaceOnUse"
       gradientTransform="matrix(1.3636576,0,0,2.0985615,-7.8705182,-4.0976584)" />
    <linearGradient
       x1="13"
       y1="13"
       x2="35"
       y2="13"
       id="linearGradient3890"
       xlink:href="#linearGradient3737"
       gradientUnits="userSpaceOnUse"
       gradientTransform="matrix(1.1900136,0,0,1.9301623,-4.5603251,-5.0921114)" />
    <filter
       color-interpolation-filters="sRGB"
       id="filter3915">
      <feGaussianBlur
         stdDeviation="0.67"
         id="feGaussianBlur3917" />
    </filter>
    <radialGradient
       cx="26"
       cy="42.5"
       r="19"
       fx="26"
       fy="42.5"
       id="radialGradient3927"
       xlink:href="#linearGradient3921"
       gradientUnits="userSpaceOnUse"
       gradientTransform="matrix(1,0,0,0.18421053,0,34.671053)" />
    <linearGradient
       id="linearGradient4647">
      <stop
         id="stop4653"
         style="stop-color:#b3b3b3;stop-opacity:1"
         offset="0" />
      <stop
         id="stop4655"
         style="stop-color:white;stop-opacity:1"
         offset="0.40689188" />
      <stop
         id="stop4657"
         style="stop-color:#f0f0f0;stop-opacity:1"
         offset="0.58682591" />
      <stop
         id="stop4659"
         style="stop-color:#999;stop-opacity:1"
         offset="1" />
    </linearGradient>
    <radialGradient
       cx="12.424876"
       cy="38.049999"
       r="1.8182746"
       fx="12.424876"
       fy="38.049999"
       id="radialGradient4750"
       xlink:href="#linearGradient4647"
       gradientUnits="userSpaceOnUse" />
    <linearGradient
       x1="13"
       y1="37"
       x2="13"
       y2="40"
       id="linearGradient4758"
       xlink:href="#linearGradient4760"
       gradientUnits="userSpaceOnUse" />
    <linearGradient
       x1="13"
       y1="37"
       x2="13"
       y2="40"
       id="linearGradient4772"
       xlink:href="#linearGradient4760"
       gradientUnits="userSpaceOnUse"
       gradientTransform="translate(5,0)" />
    <linearGradient
       x1="13"
       y1="37"
       x2="13"
       y2="40"
       id="linearGradient4776"
       xlink:href="#linearGradient4760"
       gradientUnits="userSpaceOnUse"
       gradientTransform="translate(17,0)" />
    <linearGradient
       x1="13"
       y1="37"
       x2="13"
       y2="40"
       id="linearGradient4780"
       xlink:href="#linearGradient4760"
       gradientUnits="userSpaceOnUse"
       gradientTransform="translate(22,0)" />
  </defs>
  <g
     id="layer1">
    <path
       d="m 45,42.5 a 19,3.5 0 1 1 -38,0 19,3.5 0 1 1 38,0 z"
       transform="matrix(1.0526316,0,0,1.1428571,-3.3684208,-5.5714286)"
       id="path3919"
       style="opacity:0.4;fill:url(#radialGradient3927);fill-opacity:1;stroke:none" />
    <path
       d="m 9.9774449,2.5000012 28.0714271,0 c 0.818504,0 1.477444,0.6857968 1.477444,1.5376609 l 0,36.7500959 c 0,0.851863 -0.65894,1.53766 -1.477444,1.53766 0,0 -7.017856,2.17458 -14.035714,2.17458 -7.017856,0 -14.0357131,-2.17458 -14.0357131,-2.17458 -0.8185046,0 -1.4774445,-0.685797 -1.4774445,-1.53766 l 0,-36.7500959 c 0,-0.8518641 0.6589399,-1.5376609 1.4774445,-1.5376609 z"
       id="rect5508"
       style="fill:url(#linearGradient7693);fill-opacity:1;stroke:url(#linearGradient3881);stroke-width:1.00000083;stroke-linecap:round;stroke-linejoin:miter;stroke-miterlimit:4;stroke-opacity:1" />
    <path
       d="M 11.333334,4 36.666667,4 C 37.405333,4 38,4.6368114 38,5.4278282 L 38,39.55292 c 0,0.791016 -0.594667,1.427827 -1.333333,1.427827 C 36.666667,40.980747 30.333333,43 24,43 17.666669,43 11.333334,40.980747 11.333334,40.980747 10.594667,40.980747 10,40.343936 10,39.55292 L 10,5.4278282 C 10,4.6368114 10.594667,4 11.333334,4 z"
       id="path3909"
       style="opacity:0.3;fill:white;fill-opacity:1;stroke:none;filter:url(#filter3915)" />
    <path
       d="m 14.091628,38.049999 a 1.666752,1.666752 0 1 1 -3.333504,0 1.666752,1.666752 0 1 1 3.333504,0 z"
       transform="matrix(1.6499159,0,0,1.6499156,3.4999989,-23.779287)"
       id="path6724"
       style="fill:url(#radialGradient4750);fill-opacity:1;stroke:#787878;stroke-width:0.30304578;stroke-linecap:round;stroke-linejoin:miter;stroke-miterlimit:4;stroke-opacity:1;stroke-dasharray:none" />
    <rect
       width="25.051138"
       height="29.051138"
       rx="0"
       ry="0"
       x="11.474432"
       y="5.4744315"
       id="rect4140"
       style="fill:url(#radialGradient3888);fill-opacity:1;fill-rule:evenodd;stroke:url(#linearGradient3890);stroke-width:0.94886303;stroke-linecap:round;stroke-linejoin:round;stroke-miterlimit:3.42857146;stroke-opacity:1;stroke-dasharray:none;stroke-dashoffset:0;marker:none;visibility:visible;display:inline;overflow:visible;enable-background:accumulate" />
    <path
       d="M 12,6 36,6 36,14.000003 12,21 12,6 z"
       id="rect6588"
       style="fill:url(#linearGradient3884);fill-opacity:1;stroke:none" />
    <rect
       width="3.5"
       height="2.5"
       x="11.25"
       y="37.25"
       id="rect3933"
       style="fill:url(#linearGradient4758);fill-opacity:1;stroke:#787878;stroke-width:0.5;stroke-linejoin:round;stroke-miterlimit:4;stroke-opacity:1;stroke-dasharray:none" />
    <rect
       width="3.5"
       height="2.5"
       x="16.25"
       y="37.25"
       id="rect4770"
       style="fill:url(#linearGradient4772);fill-opacity:1;stroke:#787878;stroke-width:0.5;stroke-linejoin:round;stroke-miterlimit:4;stroke-opacity:1;stroke-dasharray:none" />
    <rect
       width="3.5"
       height="2.5"
       x="28.25"
       y="37.25"
       id="rect4774"
       style="fill:url(#linearGradient4776);fill-opacity:1;stroke:#787878;stroke-width:0.5;stroke-linejoin:round;stroke-miterlimit:4;stroke-opacity:1;stroke-dasharray:none" />
    <rect
       width="3.5"
       height="2.5"
       x="33.25"
       y="37.25"
       id="rect4778"
       style="fill:url(#linearGradient4780);fill-opacity:1;stroke:#787878;stroke-width:0.5;stroke-linejoin:round;stroke-miterlimit:4;stroke-opacity:1;stroke-dasharray:none" />
  </g>
</svg>

<?xml version="1.0" encoding="UTF-8" standalone="no"?>
<!-- Created with Inkscape (http://www.inkscape.org/) -->
<svg
   xmlns:dc="http://purl.org/dc/elements/1.1/"
   xmlns:cc="http://creativecommons.org/ns#"
   xmlns:rdf="http://www.w3.org/1999/02/22-rdf-syntax-ns#"
   xmlns:svg="http://www.w3.org/2000/svg"
   xmlns="http://www.w3.org/2000/svg"
   xmlns:xlink="http://www.w3.org/1999/xlink"
   xmlns:sodipodi="http://sodipodi.sourceforge.net/DTD/sodipodi-0.dtd"
   xmlns:inkscape="http://www.inkscape.org/namespaces/inkscape"
   version="1.1"
   width="48"
   height="48"
   id="svg5490"
   sodipodi:version="0.32"
   inkscape:version="0.46"
   sodipodi:docname="pda.svg"
   inkscape:output_extension="org.inkscape.output.svg.inkscape">
  <metadata
     id="metadata60">
    <rdf:RDF>
      <cc:Work
         rdf:about="">
        <dc:format>image/svg+xml</dc:format>
        <dc:type
           rdf:resource="http://purl.org/dc/dcmitype/StillImage" />
      </cc:Work>
    </rdf:RDF>
  </metadata>
  <sodipodi:namedview
     inkscape:window-height="707"
     inkscape:window-width="640"
     inkscape:pageshadow="2"
     inkscape:pageopacity="0.0"
     guidetolerance="10.0"
     gridtolerance="10.0"
     objecttolerance="10.0"
     borderopacity="1.0"
     bordercolor="#666666"
     pagecolor="#ffffff"
     id="base"
     showgrid="false"
     inkscape:zoom="5.1875"
     inkscape:cx="24"
     inkscape:cy="24"
     inkscape:window-x="0"
     inkscape:window-y="110"
     inkscape:current-layer="svg5490" />
  <defs
     id="defs5492">
    <linearGradient
       id="linearGradient4760">
      <stop
         id="stop4762"
         style="stop-color:#b3b3b3;stop-opacity:1"
         offset="0" />
      <stop
         id="stop4764"
         style="stop-color:white;stop-opacity:1"
         offset="0.35480854" />
      <stop
         id="stop4766"
         style="stop-color:#f0f0f0;stop-opacity:1"
         offset="0.51390922" />
      <stop
         id="stop4768"
         style="stop-color:#999;stop-opacity:1"
         offset="1" />
    </linearGradient>
    <linearGradient
       id="linearGradient3921">
      <stop
         id="stop3923"
         style="stop-color:black;stop-opacity:1"
         offset="0" />
      <stop
         id="stop3925"
         style="stop-color:black;stop-opacity:0"
         offset="1" />
    </linearGradient>
    <linearGradient
       x1="22.487293"
       y1="2.0235677"
       x2="22.487293"
       y2="42.99675"
       id="linearGradient7693"
       xlink:href="#linearGradient3143"
       gradientUnits="userSpaceOnUse"
       gradientTransform="matrix(1.03421,0,0,1.0494669,0.7434167,-0.1236673)" />
    <linearGradient
       id="linearGradient3821">
      <stop
         id="stop3823"
         style="stop-color:#6c6c6c;stop-opacity:1"
         offset="0" />
      <stop
         id="stop3825"
         style="stop-color:#a8a8a8;stop-opacity:1"
         offset="1" />
    </linearGradient>
    <linearGradient
       id="linearGradient3143">
      <stop
         id="stop3145"
         style="stop-color:#e6e6e6;stop-opacity:1"
         offset="0" />
      <stop
         id="stop3147"
         style="stop-color:#afafaf;stop-opacity:1"
         offset="1" />
    </linearGradient>
    <linearGradient
       id="linearGradient3737">
      <stop
         id="stop3739"
         style="stop-color:#121214;stop-opacity:1"
         offset="0" />
      <stop
         id="stop3741"
         style="stop-color:#393e44;stop-opacity:1"
         offset="0.0932906" />
      <stop
         id="stop3743"
         style="stop-color:#50555b;stop-opacity:1"
         offset="0.50235617" />
      <stop
         id="stop3745"
         style="stop-color:#22272d;stop-opacity:1"
         offset="0.91142172" />
      <stop
         id="stop3747"
         style="stop-color:#303438;stop-opacity:1"
         offset="1" />
    </linearGradient>
    <linearGradient
       id="linearGradient9936">
      <stop
         id="stop9938"
         style="stop-color:#575757;stop-opacity:1"
         offset="0" />
      <stop
         id="stop9940"
         style="stop-color:#333;stop-opacity:1"
         offset="1" />
    </linearGradient>
    <linearGradient
       id="linearGradient6592-2-7">
      <stop
         id="stop6594-0-2"
         style="stop-color:white;stop-opacity:0.27450982"
         offset="0" />
      <stop
         id="stop6596-2-5"
         style="stop-color:white;stop-opacity:0"
         offset="1" />
    </linearGradient>
    <linearGradient
       x1="22"
       y1="45"
       x2="22"
       y2="2"
       id="linearGradient3881"
       xlink:href="#linearGradient3821"
       gradientUnits="userSpaceOnUse" />
    <linearGradient
       x1="12.9375"
       y1="8.4375"
       x2="15.25"
       y2="19.8125"
       id="linearGradient3884"
       xlink:href="#linearGradient6592-2-7"
       gradientUnits="userSpaceOnUse"
       gradientTransform="matrix(0.5714286,0,0,0.9999994,10.285715,3.0000016)" />
    <radialGradient
       cx="19.063108"
       cy="8.4179487"
       r="11"
       fx="19.063108"
       fy="8.4179487"
       id="radialGradient3888"
       xlink:href="#linearGradient9936"
       gradientUnits="userSpaceOnUse"
       gradientTransform="matrix(1.3636576,0,0,2.0985615,-7.8705182,-4.0976584)" />
    <linearGradient
       x1="13"
       y1="13"
       x2="35"
       y2="13"
       id="linearGradient3890"
       xlink:href="#linearGradient3737"
       gradientUnits="userSpaceOnUse"
       gradientTransform="matrix(1.1900136,0,0,1.9301623,-4.5603251,-5.0921114)" />
    <filter
       color-interpolation-filters="sRGB"
       id="filter3915">
      <feGaussianBlur
         stdDeviation="0.67"
         id="feGaussianBlur3917" />
    </filter>
    <radialGradient
       cx="26"
       cy="42.5"
       r="19"
       fx="26"
       fy="42.5"
       id="radialGradient3927"
       xlink:href="#linearGradient3921"
       gradientUnits="userSpaceOnUse"
       gradientTransform="matrix(1,0,0,0.1842105,0,34.671053)" />
    <linearGradient
       id="linearGradient4647">
      <stop
         id="stop4653"
         style="stop-color:#b3b3b3;stop-opacity:1"
         offset="0" />
      <stop
         id="stop4655"
         style="stop-color:white;stop-opacity:1"
         offset="0.40689188" />
      <stop
         id="stop4657"
         style="stop-color:#f0f0f0;stop-opacity:1"
         offset="0.58682591" />
      <stop
         id="stop4659"
         style="stop-color:#999;stop-opacity:1"
         offset="1" />
    </linearGradient>
    <radialGradient
       cx="12.424876"
       cy="38.049999"
       r="1.8182746"
       fx="12.424876"
       fy="38.049999"
       id="radialGradient4750"
       xlink:href="#linearGradient4647"
       gradientUnits="userSpaceOnUse" />
    <linearGradient
       x1="13"
       y1="37"
       x2="13"
       y2="40"
       id="linearGradient4758"
       xlink:href="#linearGradient4760"
       gradientUnits="userSpaceOnUse" />
    <linearGradient
       x1="13"
       y1="37"
       x2="13"
       y2="40"
       id="linearGradient4772"
       xlink:href="#linearGradient4760"
       gradientUnits="userSpaceOnUse"
       gradientTransform="translate(5,0)" />
    <linearGradient
       x1="13"
       y1="37"
       x2="13"
       y2="40"
       id="linearGradient4776"
       xlink:href="#linearGradient4760"
       gradientUnits="userSpaceOnUse"
       gradientTransform="translate(17,0)" />
    <linearGradient
       x1="13"
       y1="37"
       x2="13"
       y2="40"
       id="linearGradient4780"
       xlink:href="#linearGradient4760"
       gradientUnits="userSpaceOnUse"
       gradientTransform="translate(22,0)" />
    <linearGradient
       inkscape:collect="always"
       xlink:href="#linearGradient4760"
       id="linearGradient2436"
       gradientUnits="userSpaceOnUse"
       gradientTransform="translate(22,0)"
       x1="13"
       y1="37"
       x2="13"
       y2="40" />
    <linearGradient
       inkscape:collect="always"
       xlink:href="#linearGradient4760"
       id="linearGradient2439"
       gradientUnits="userSpaceOnUse"
       gradientTransform="translate(17,0)"
       x1="13"
       y1="37"
       x2="13"
       y2="40" />
    <linearGradient
       inkscape:collect="always"
       xlink:href="#linearGradient4760"
       id="linearGradient2442"
       gradientUnits="userSpaceOnUse"
       gradientTransform="translate(5,0)"
       x1="13"
       y1="37"
       x2="13"
       y2="40" />
    <linearGradient
       inkscape:collect="always"
       xlink:href="#linearGradient4760"
       id="linearGradient2445"
       gradientUnits="userSpaceOnUse"
       x1="13"
       y1="37"
       x2="13"
       y2="40" />
    <linearGradient
       inkscape:collect="always"
       xlink:href="#linearGradient6592-2-7"
       id="linearGradient2448"
       gradientUnits="userSpaceOnUse"
       gradientTransform="matrix(0.5714286,0,0,0.9999994,10.285715,3.0000016)"
       x1="12.9375"
       y1="8.4375"
       x2="15.25"
       y2="19.8125" />
    <radialGradient
       inkscape:collect="always"
       xlink:href="#linearGradient9936"
       id="radialGradient2451"
       gradientUnits="userSpaceOnUse"
       gradientTransform="matrix(1.3636576,0,0,2.0985615,-7.8705182,-4.0976584)"
       cx="19.063108"
       cy="8.4179487"
       fx="19.063108"
       fy="8.4179487"
       r="11" />
    <linearGradient
       inkscape:collect="always"
       xlink:href="#linearGradient3737"
       id="linearGradient2453"
       gradientUnits="userSpaceOnUse"
       gradientTransform="matrix(1.1900136,0,0,1.9301623,-4.5603251,-5.0921114)"
       x1="13"
       y1="13"
       x2="35"
       y2="13" />
    <radialGradient
       inkscape:collect="always"
       xlink:href="#linearGradient4647"
       id="radialGradient2456"
       gradientUnits="userSpaceOnUse"
       cx="12.424876"
       cy="38.049999"
       fx="12.424876"
       fy="38.049999"
       r="1.8182746"
       gradientTransform="matrix(1.6499159,0,0,1.6499156,3.4999989,-23.779287)" />
    <linearGradient
       inkscape:collect="always"
       xlink:href="#linearGradient3143"
       id="linearGradient2460"
       gradientUnits="userSpaceOnUse"
       gradientTransform="matrix(1.03421,0,0,1.0494669,0.7434167,-0.1236673)"
       x1="22.487293"
       y1="2.0235677"
       x2="22.487293"
       y2="42.99675" />
    <linearGradient
       inkscape:collect="always"
       xlink:href="#linearGradient3821"
       id="linearGradient2462"
       gradientUnits="userSpaceOnUse"
       x1="22"
       y1="45"
       x2="22"
       y2="2" />
    <radialGradient
       inkscape:collect="always"
       xlink:href="#linearGradient3921"
       id="radialGradient2465"
       gradientUnits="userSpaceOnUse"
       gradientTransform="matrix(1.0526316,0,0,0.2105263,-3.3684208,34.05263)"
       cx="26"
       cy="42.5"
       fx="26"
       fy="42.5"
       r="19" />
  </defs>
  <path
     style="opacity:0.4;fill:url(#radialGradient2465);fill-opacity:1;stroke:none"
     id="path3919"
     d="M 44.000001,42.999998 C 44.000001,45.209137 35.045696,46.999998 24.000001,46.999998 C 12.954306,46.999998 4.0000004,45.209137 4.0000004,42.999998 C 4.0000004,40.790859 12.954306,38.999998 24.000001,38.999998 C 35.045696,38.999998 44.000001,40.790859 44.000001,42.999998 z" />
  <path
     style="fill:url(#linearGradient2460);fill-opacity:1;stroke:url(#linearGradient2462);stroke-width:1.00000083;stroke-linecap:round;stroke-linejoin:miter;stroke-miterlimit:4;stroke-opacity:1"
     id="rect5508"
     d="M 9.9774449,2.5000012 L 38.048872,2.5000012 C 38.867376,2.5000012 39.526316,3.185798 39.526316,4.0376621 L 39.526316,40.787758 C 39.526316,41.639621 38.867376,42.325418 38.048872,42.325418 C 38.048872,42.325418 31.031016,44.499998 24.013158,44.499998 C 16.995302,44.499998 9.9774449,42.325418 9.9774449,42.325418 C 9.1589403,42.325418 8.5000004,41.639621 8.5000004,40.787758 L 8.5000004,4.0376621 C 8.5000004,3.185798 9.1589403,2.5000012 9.9774449,2.5000012 L 9.9774449,2.5000012 z" />
  <path
     style="opacity:0.3;fill:#ffffff;fill-opacity:1;stroke:none;filter:url(#filter3915)"
     id="path3909"
     d="M 11.333334,4 L 36.666667,4 C 37.405333,4 38,4.6368114 38,5.4278282 L 38,39.55292 C 38,40.343936 37.405333,40.980747 36.666667,40.980747 C 36.666667,40.980747 30.333333,43 24,43 C 17.666669,43 11.333334,40.980747 11.333334,40.980747 C 10.594667,40.980747 10,40.343936 10,39.55292 L 10,5.4278282 C 10,4.6368114 10.594667,4 11.333334,4 z" />
  <path
     style="fill:url(#radialGradient2456);fill-opacity:1;stroke:#787878;stroke-width:0.5;stroke-linecap:round;stroke-linejoin:miter;stroke-miterlimit:4;stroke-dasharray:none;stroke-opacity:1"
     id="path6724"
     d="M 26.75,39 C 26.75,40.518784 25.518783,41.75 23.999999,41.75 C 22.481215,41.75 21.249999,40.518784 21.249999,39 C 21.249999,37.481216 22.481215,36.25 23.999999,36.25 C 25.518783,36.25 26.75,37.481216 26.75,39 z" />
  <rect
     style="fill:url(#radialGradient2451);fill-opacity:1;fill-rule:evenodd;stroke:url(#linearGradient2453);stroke-width:0.94886303;stroke-linecap:round;stroke-linejoin:round;marker:none;stroke-miterlimit:3.42857146;stroke-dasharray:none;stroke-dashoffset:0;stroke-opacity:1;visibility:visible;display:inline;overflow:visible;enable-background:accumulate"
     id="rect4140"
     y="5.4744315"
     x="11.474432"
     ry="0"
     rx="0"
     height="29.051138"
     width="25.051138" />
  <path
     style="fill:url(#linearGradient2448);fill-opacity:1;stroke:none"
     id="rect6588"
     d="M 12,6 L 36,6 L 36,14.000003 L 12,21 L 12,6 z" />
  <rect
     style="fill:url(#linearGradient2445);fill-opacity:1;stroke:#787878;stroke-width:0.5;stroke-linejoin:round;stroke-miterlimit:4;stroke-dasharray:none;stroke-opacity:1"
     id="rect3933"
     y="37.25"
     x="11.25"
     height="2.5"
     width="3.5" />
  <rect
     style="fill:url(#linearGradient2442);fill-opacity:1;stroke:#787878;stroke-width:0.5;stroke-linejoin:round;stroke-miterlimit:4;stroke-dasharray:none;stroke-opacity:1"
     id="rect4770"
     y="37.25"
     x="16.25"
     height="2.5"
     width="3.5" />
  <rect
     style="fill:url(#linearGradient2439);fill-opacity:1;stroke:#787878;stroke-width:0.5;stroke-linejoin:round;stroke-miterlimit:4;stroke-dasharray:none;stroke-opacity:1"
     id="rect4774"
     y="37.25"
     x="28.25"
     height="2.5"
     width="3.5" />
  <rect
     style="fill:url(#linearGradient2436);fill-opacity:1;stroke:#787878;stroke-width:0.5;stroke-linejoin:round;stroke-miterlimit:4;stroke-dasharray:none;stroke-opacity:1"
     id="rect4778"
     y="37.25"
     x="33.25"
     height="2.5"
     width="3.5" />
</svg>
